material/.icons/material/view-dashboard-outline.svg

<svg xmlns="http://www.w3.org/2000/svg" viewBox="0 0 24 24"><path d="M19 5v2h-4V5h4M9 5v6H5V5h4m10 8v6h-4v-6h4M9 17v2H5v-2h4M21 3h-8v6h8V3M11 3H3v10h8V3m10 8h-8v10h8V11m-10 4H3v6h8v-6z"/></svg>

<?xml version="1.0" encoding="UTF-8"?><!DOCTYPE svg PUBLIC "-//W3C//DTD SVG 1.1//EN" "http://www.w3.org/Graphics/SVG/1.1/DTD/svg11.dtd"><svg xmlns="http://www.w3.org/2000/svg" xmlns:xlink="http://www.w3.org/1999/xlink" version="1.1" id="mdi-view-dashboard-outline" width="24" height="24" viewBox="0 0 24 24"><path d="M19,5V7H15V5H19M9,5V11H5V5H9M19,13V19H15V13H19M9,17V19H5V17H9M21,3H13V9H21V3M11,3H3V13H11V3M21,11H13V21H21V11M11,15H3V21H11V15Z" /></svg>
